X: 27634
T: Mooncoin, The
R: reel
M: 4/4
K: Dmajor
|:Ac|d2AF DFAc|dced cAAc|BAGF GABc|dced cABc|
d2AF DFAc|dced cABc|BAGF GABc|dcec d2:|
|:de|fdad fdad|fdad fddf|ecgc ecgc|ecgc ecce|
fdad fdad|fdad fddf|g2gf gbag|fdec d2:|

